!!!OTL: WENN ICH IHN NUR HABE
!!!ARE: Europa, Mitteleuropa, Deutschland
!!!SCT: B0751A
!!!YEM: Copyright 1995, estate of Helmut Schaffrath.
**kern
*ICvox
*Ivox
*M4/4
*k[b-e-a-]
*E-:
=1
{4b-
4b-
4ee-
8dd
8cc
=2
4b-
4a-
2g}
=3
{4g
4cc
4b-
4an
=4
4b-
4r}
{4b-
8cc
8dd
=5
4ee-
4ee-
4ee-
8dd
8cc
=6
4b-
4a-
2g}
=7
{4cc
4b-
8b-
8a-
4g
=8
4f
8g
8f
2f}
=9
{4dd
8cc
8b-
4an
4b-
=10
2ee-
4dd
4r}
=11
{4ee-
8dd
8ff
4ee-
4b-
=12
4cc
4b-
8b-
8a-
4g
=13
2f
4e-
4r}
==
!!!AGN: religioes
!!!ONB: ESAC (Essen Associative Code) Database: BOEHME
!!!AMT: simple quadruple
!!!AIN: vox
!!!EED: Helmut Schaffrath
!!!EEV: 1.0
*-
